assets/img/item1.svg

<svg width="48" height="48" viewBox="0 0 48 48" fill="none" xmlns="http://www.w3.org/2000/svg">
<path d="M24 0.5C36.9787 0.5 47.5 11.0213 47.5 24C47.5 36.9787 36.9787 47.5 24 47.5C11.0213 47.5 0.5 36.9787 0.5 24C0.5 11.0213 11.0213 0.5 24 0.5Z" fill="#151515" stroke="#EFBC33"/>
<path fill-rule="evenodd" clip-rule="evenodd" d="M34.4053 32.2852V32.2852C31.0653 31.6172 27.62 31.6998 24.316 32.5252L24 32.6052C20.488 33.4825 16.8253 33.5705 13.276 32.8598L13.072 32.8185C12.448 32.6945 12 32.1465 12 31.5118V17.0598C12 16.2185 12.7693 15.5878 13.5947 15.7518V15.7518C16.9347 16.4198 20.38 16.3372 23.684 15.5118L24.3147 15.3545C27.6187 14.5292 31.0653 14.4465 34.404 15.1145L34.9267 15.2185C35.552 15.3438 36 15.8905 36 16.5265V30.9785C36 31.8198 35.2307 32.4505 34.4053 32.2852V32.2852Z" stroke="#EFBC33" stroke-width="1.5" stroke-linecap="round" stroke-linejoin="round"/>
<path d="M24.0007 20.5V19.3333" stroke="#EFBC33" stroke-width="1.5" stroke-linecap="round" stroke-linejoin="round"/>
<path d="M24.0007 27.4993V28.666" stroke="#EFBC33" stroke-width="1.5" stroke-linecap="round" stroke-linejoin="round"/>
<path d="M21.9773 26.666C22.28 27.1607 22.796 27.5034 23.4186 27.5034H24.0026H24.6973C25.6026 27.5034 26.3346 26.77 26.3346 25.866C26.3346 25.114 25.8226 24.4594 25.0946 24.2754L22.908 23.726C22.1813 23.5434 21.668 22.8874 21.668 22.1354C21.668 21.23 22.4013 20.498 23.3053 20.498H24H24.584C25.2066 20.498 25.7213 20.838 26.024 21.3314" stroke="#EFBC33" stroke-width="1.5" stroke-linecap="round" stroke-linejoin="round"/>
</svg>

<svg xmlns="http://www.w3.org/2000/svg" width="48" height="48" fill="none"><path fill="#151515" stroke="#EFBC33" d="M24 .5C36.979.5 47.5 11.021 47.5 24S36.979 47.5 24 47.5.5 36.979.5 24 11.021.5 24 .5Z"/><path stroke="#EFBC33" stroke-linecap="round" stroke-linejoin="round" stroke-width="1.5" d="M34.405 32.285a23 23 0 0 0-10.089.24l-.316.08a24.45 24.45 0 0 1-10.724.255l-.204-.041A1.33 1.33 0 0 1 12 31.512V17.06c0-.841.77-1.472 1.595-1.308v0c3.34.668 6.785.585 10.089-.24l.63-.158a23 23 0 0 1 10.09-.24l.523.104A1.33 1.33 0 0 1 36 16.527V30.98c0 .84-.77 1.471-1.595 1.306" clip-rule="evenodd"/><path stroke="#EFBC33" stroke-linecap="round" stroke-linejoin="round" stroke-width="1.5" d="M24 20.5v-1.167M24 27.5v1.166M21.977 26.666c.303.495.819.837 1.442.837h1.278c.906 0 1.638-.733 1.638-1.637 0-.752-.512-1.407-1.24-1.59l-2.187-.55a1.64 1.64 0 0 1-1.24-1.59c0-.906.733-1.638 1.637-1.638h1.279c.623 0 1.137.34 1.44.833"/></svg>
